X:194
T:Shattery Island 
C:Joe Buchanan's Scottish Tome - Page 276.2
I:276 2
R:Jig
Z:Carl Allison
L:1/8
M:6/8
K:D
A | "D"FGA dcd |"D" FGA dcd |"A7" e2 A cBA |"A7" e2 A cBA |
"D"FGA dcd |"D" FGA dcd |"A7" e2 A cBA |"A" B2 c "D"d2 :|
f/g/ | "D"a3 "A7"f2 e |"Bm" ded "D"def |"Em" gag "D"fgf | "A7"e3 efg |
"D"a3 "F#7"f2 e |"Bm" d2 d "A"ecA | "A7"ecA cBA | "A"B2 c "D"d2 :|

